X: 2281
T: Balendalochs Dream.   a Reel.
%R: reel
B: Niel Gow & Sons "Complete Repository" v.2 p.28 #1
Z: 2021 John Chambers <jc:trillian.mit.edu>
M: C
L: 1/8
K: A
% - - - - - - - - - -
V: 1 staves=2
e |\
Tc2A>c (ef/g/ a)f | =g2gB GB/c/ dB | Tc2Ac (ef/g/ a).f | =gefd ~e2A :| ^g | a2ea cAaf | =g2dg BGdB |
a2ea cAaf | =gefd Te2A^g || a2ea cAaf | =g2dg BGdB | cedf e=gfa | =gefd ~e2A |]
% - - - - - - - - - -
% Voice 2 preserves the staff layout in the book.
V: 2 clef=bass middle=d
z |\
a2a2 a2a2 | =g2g2 g2g2 | a2a2 a2a2 | e2e2 a2a :| z | a2a2 a2a2 | =g2g2 g2g2 |
a2a2 a2a2 | e2e2 A2A2 || a2a2 a2a2 | =g2g2 g2g2 | a2b2 c'2d'2 | e'2e2 a2a |]


